Adwaita++/status/22/media-playback-paused.svg

<svg height="22" viewBox="0 0 22 22" width="22" xmlns="http://www.w3.org/2000/svg">
  <path d="m5.5 5.5v11h3.667v-11zm7.333 0v11h3.667v-11zm1.556-4.767c6.66 0 7.611.95 7.611 7.604v5.328c0 6.652-.951 7.602-7.611 7.602h-6.778c-6.66 0-7.611-.95-7.611-7.602v-5.328c0-6.654.951-7.604 7.611-7.604zm.007 2.058c.715 0 1.417.014 2.132.055.508.028 1.003.083 1.498.165.303.055.592.138.867.262.123.054.247.137.343.22.097.11.165.22.22.343.124.275.207.564.262.867.082.495.137.99.165 1.498.041.715.055 1.417.055 2.132v5.334.014c0 .702-.014 1.403-.055 2.118-.028.508-.083 1.004-.165 1.499-.055.302-.138.591-.262.866-.055.124-.123.234-.22.344-.096.082-.22.165-.343.22-.275.123-.564.206-.867.261-.495.082-.99.137-1.498.165-.715.041-1.417.055-2.132.055h-6.792c-.715 0-1.416-.014-2.131-.055-.509-.028-1.004-.083-1.499-.165-.303-.055-.591-.138-.866-.261-.124-.055-.248-.138-.344-.22-.096-.11-.165-.22-.22-.344-.124-.275-.206-.564-.262-.866-.082-.495-.137-.991-.164-1.499-.042-.715-.055-1.416-.055-2.118 0-.014 0-.014 0-.014v-5.334c0-.715.013-1.417.055-2.132.027-.508.082-1.003.164-1.498.056-.303.138-.592.262-.867.055-.123.124-.233.22-.343.096-.083.22-.166.344-.22.275-.124.563-.207.866-.262.495-.082.99-.137 1.499-.165.715-.041 1.416-.055 2.131-.055z" fill="#5c616c" fill-rule="evenodd"/>
</svg>

<?xml version="1.0" standalone="no"?><!-- Generator: Gravit.io --><svg xmlns="http://www.w3.org/2000/svg" xmlns:xlink="http://www.w3.org/1999/xlink" style="isolation:isolate" viewBox="0 0 22 22" width="22" height="22"><path d=" M 5.5 5.5 L 5.5 16.5 L 9.167 16.5 L 9.167 5.5 L 5.5 5.5 Z  M 12.833 5.5 L 12.833 16.5 L 16.5 16.5 L 16.5 5.5 L 12.833 5.5 Z  M 14.389 0.733 C 21.049 0.733 22 1.683 22 8.337 L 22 13.665 C 22 20.317 21.049 21.267 14.389 21.267 L 7.611 21.267 C 0.951 21.267 0 20.317 0 13.665 L 0 8.337 C 0 1.683 0.951 0.733 7.611 0.733 L 14.389 0.733 Z  M 14.396 2.791 C 15.111 2.791 15.813 2.805 16.528 2.846 C 17.036 2.874 17.531 2.929 18.026 3.011 C 18.329 3.066 18.618 3.149 18.893 3.273 C 19.016 3.327 19.14 3.41 19.236 3.493 C 19.333 3.603 19.401 3.713 19.456 3.836 C 19.58 4.111 19.663 4.4 19.718 4.703 C 19.8 5.198 19.855 5.693 19.883 6.201 C 19.924 6.916 19.938 7.618 19.938 8.333 C 19.938 8.333 19.938 8.333 19.938 8.333 L 19.938 13.667 C 19.938 13.667 19.938 13.667 19.938 13.681 C 19.938 14.383 19.924 15.084 19.883 15.799 C 19.855 16.307 19.8 16.803 19.718 17.298 C 19.663 17.6 19.58 17.889 19.456 18.164 C 19.401 18.288 19.333 18.398 19.236 18.508 C 19.14 18.59 19.016 18.673 18.893 18.728 C 18.618 18.851 18.329 18.934 18.026 18.989 C 17.531 19.071 17.036 19.126 16.528 19.154 C 15.813 19.195 15.111 19.209 14.396 19.209 C 14.396 19.209 14.396 19.209 14.396 19.209 L 7.604 19.209 C 7.604 19.209 7.604 19.209 7.604 19.209 C 6.889 19.209 6.188 19.195 5.473 19.154 C 4.964 19.126 4.469 19.071 3.974 18.989 C 3.671 18.934 3.383 18.851 3.108 18.728 C 2.984 18.673 2.86 18.59 2.764 18.508 C 2.668 18.398 2.599 18.288 2.544 18.164 C 2.42 17.889 2.338 17.6 2.282 17.298 C 2.2 16.803 2.145 16.307 2.118 15.799 C 2.076 15.084 2.063 14.383 2.063 13.681 C 2.063 13.667 2.063 13.667 2.063 13.667 L 2.063 8.333 C 2.063 8.333 2.063 8.333 2.063 8.333 C 2.063 7.618 2.076 6.916 2.118 6.201 C 2.145 5.693 2.2 5.198 2.282 4.703 C 2.338 4.4 2.42 4.111 2.544 3.836 C 2.599 3.713 2.668 3.603 2.764 3.493 C 2.86 3.41 2.984 3.327 3.108 3.273 C 3.383 3.149 3.671 3.066 3.974 3.011 C 4.469 2.929 4.964 2.874 5.473 2.846 C 6.188 2.805 6.889 2.791 7.604 2.791 C 7.604 2.791 7.604 2.791 7.604 2.791 L 14.396 2.791 C 14.396 2.791 14.396 2.791 14.396 2.791 Z " fill-rule="evenodd" fill="#5c616c"/></svg>
